images/quotation-mark-green.svg

<svg width="54" height="40" viewBox="0 0 54 40" fill="none" xmlns="http://www.w3.org/2000/svg">
<path d="M38.9994 39.3333C38.6492 39.596 38.2507 39.7871 37.8267 39.8957C37.4026 40.0043 36.9614 40.0284 36.528 39.9665C36.0947 39.9046 35.6778 39.7579 35.3011 39.5349C34.9244 39.3119 34.5954 39.0169 34.3328 38.6667C34.0701 38.3165 33.879 37.918 33.7704 37.4939C33.6617 37.0699 33.6377 36.6286 33.6996 36.1953C33.7615 35.7619 33.9081 35.345 34.1312 34.9684C34.3542 34.5917 34.6492 34.2626 34.9994 34C40.2128 30.09 43.1994 26.2867 44.9094 22.9667C42.5615 23.5711 40.0836 23.429 37.8202 22.5602C35.5568 21.6913 33.6203 20.139 32.2798 18.1188C30.9393 16.0986 30.2615 13.711 30.3406 11.2879C30.4196 8.86472 31.2517 6.5264 32.721 4.59791C34.1903 2.66941 36.2239 1.24657 38.5391 0.52714C40.8543 -0.192285 43.3362 -0.172551 45.6397 0.583598C47.9432 1.33975 49.9539 2.79475 51.3924 4.74636C52.8308 6.69796 53.6256 9.04923 53.6661 11.4733C54.0932 15.5669 53.5119 19.7028 51.9728 23.52C49.9828 28.54 46.0928 34.0133 38.9994 39.3333ZM8.99942 39.3333C8.64923 39.596 8.25073 39.7871 7.82669 39.8957C7.40264 40.0043 6.96135 40.0284 6.52801 39.9665C6.09467 39.9046 5.67777 39.7579 5.30111 39.5349C4.92445 39.3119 4.5954 39.0169 4.33275 38.6667C4.07011 38.3165 3.87901 37.918 3.77037 37.4939C3.66174 37.0699 3.63768 36.6286 3.69959 36.1953C3.76149 35.7619 3.90815 35.345 4.13117 34.9684C4.3542 34.5917 4.64922 34.2626 4.99942 34C10.2128 30.09 13.1994 26.2867 14.9094 22.9667C12.5615 23.5711 10.0837 23.429 7.82023 22.5601C5.55681 21.6913 3.62028 20.139 2.27981 18.1188C0.939341 16.0986 0.26153 13.711 0.34059 11.2879C0.41965 8.86472 1.25165 6.52639 2.72095 4.5979C4.19025 2.66941 6.22385 1.24656 8.5391 0.527138C10.8543 -0.192287 13.3362 -0.172554 15.6397 0.583596C17.9432 1.33975 19.9539 2.79474 21.3924 4.74635C22.8308 6.69796 23.6256 9.04923 23.6661 11.4733C24.0932 15.5669 23.5119 19.7028 21.9728 23.52C19.9794 28.54 16.0928 34.0133 8.99942 39.3333Z" fill="#85D1A0"/>
</svg>

<svg xmlns="http://www.w3.org/2000/svg" width="54" height="40" fill="none" xmlns:v="https://vecta.io/nano"><path d="M38.999 39.333a3.33 3.33 0 0 1-1.173.562c-.424.109-.865.133-1.299.071s-.85-.209-1.227-.432a3.33 3.33 0 0 1-1.531-2.041 3.33 3.33 0 0 1 .361-2.525 3.33 3.33 0 0 1 .868-.968c5.213-3.91 8.2-7.713 9.91-11.033-2.348.604-4.826.462-7.089-.407s-4.2-2.421-5.54-4.441-2.018-4.408-1.939-6.831.911-4.762 2.38-6.69 3.503-3.351 5.818-4.071 4.797-.7 7.101.056 4.314 2.211 5.753 4.163 2.233 4.303 2.274 6.727c.427 4.094-.154 8.23-1.693 12.047-1.99 5.02-5.88 10.493-12.973 15.813zm-30 0a3.33 3.33 0 0 1-1.173.562c-.424.109-.865.133-1.299.071s-.85-.209-1.227-.432-.706-.518-.968-.868-.454-.749-.562-1.173-.133-.865-.071-1.299.209-.85.432-1.227A3.33 3.33 0 0 1 4.999 34c5.213-3.91 8.2-7.713 9.91-11.033-2.348.604-4.826.462-7.089-.407s-4.2-2.421-5.54-4.441S.262 13.711.341 11.288s.911-4.762 2.38-6.69S6.224 1.247 8.539.527s4.797-.7 7.101.056 4.314 2.211 5.753 4.163 2.233 4.303 2.274 6.727c.427 4.094-.154 8.23-1.693 12.047-1.993 5.02-5.88 10.493-12.973 15.813z" fill="#85d1a0"/></svg>
